!!!SOCIAL_FUNCTION:	songs connected with girls' adolescence ceremony
!!!PDT:	1958
!!!OTL: No_41_The_Two_Girls_Are_Together.krn
!!!REG: Northern California
!!!LANG: Non-Tone
!!!LING_GROUP: Penutian
**kern
*staff1
=1-
*clefF4
*k[b-]
*M3/4
2r
8d\L
8c\J
=2
(8d\L
8c\J)
8B-\L
8c\J
8c\
8r
=3
8d\L
8c\J
(8c\L
8Bn\J)
8c\L
8c\J
=4
8d\L
8c\J
8B-\L
8c\J
8c\
8r
=5
8d\L
8c\J
8c\L
16c\Jk
16r
(8d\L
16c\L)
16B-\JJ
=6
*M2/4
8d\L
8c\J
8B-\L
8c\J
=7
(8c\L
8d\J)
8c\L
8c\J
=8
(8c\L
8Bn\J)
8c\L
16c\Jk
16r
=9
*M3/4
8d\L
8c\J
8B-\L
8c\J
8c\
8r
=10
8d\L
8c\J
8c\L
8c\J
(8d\L
8c\J)
=11
8d\L
8c\J
8B-\L
8c\J
8c\
8r
=12
*M2/4
8d\L
8c\J
8c\
8r
=13
*M5/8
16e\LK
8.d\
16d\L
16c\
16d\
16c\J
8B-\J
=14
*M2/4
8c\L
8c\J
(8c\L
8B-\J)
=15
4c\
8d\L
16c\Jk
16r
=16
*M3/4
8d\L
8c\J
8B-\L
8c\J
8c\
8r
=17
8d\L
8c\J
8c\
8r
(8d\L
8c\J)
=18
8d\L
8c\J
8B-\L
8c\J
8c\
8r
=19
8d\L
8c\J
8c\L
8c\J
8d\L
8c\J
=20
8d\L
8c\J
8B-\L
8c\J
8c\
8r
=21
*M2/4
(8d\L
8c\J)
8c\
8r
==
*-
